Sources/FrostedUI/Resources/Icons.xcassets/bellSlash32.imageset/bell-slash-32.svg

<svg width="32" height="32" viewBox="0 0 32 32" fill="none" xmlns="http://www.w3.org/2000/svg" data-fui-icon="true">
  <path
    d="M30.7197 0.219727C31.0126 -0.0731667 31.4874 -0.0731667 31.7803 0.219727C32.0732 0.51262 32.0732 0.98738 31.7803 1.28027L1.28027 31.7803C0.98738 32.0732 0.51262 32.0732 0.219727 31.7803C-0.0731667 31.4874 -0.0731667 31.0126 0.219727 30.7197L30.7197 0.219727ZM26.9326 8.24805C27.4761 10.0342 27.6749 11.7583 27.7422 13.0059C27.8025 14.1229 28.1727 15.1744 28.873 15.9453L29.2891 16.4033C31.4067 18.7334 31.4458 22.2802 29.3799 24.6562C28.0852 26.1449 26.2083 26.9999 24.2354 27H21.3643C21.3024 28.591 20.6509 29.8396 19.665 30.6924C18.6434 31.5757 17.3053 31.9999 15.9951 32C14.6849 31.9999 13.3468 31.5756 12.3252 30.6924C11.3394 29.8396 10.6878 28.591 10.626 27H8.18164L9.68164 25.5H24.2354C25.7742 25.4999 27.2382 24.833 28.248 23.6719C29.8151 21.8696 29.785 19.1794 28.1787 17.4121L27.7637 16.9551C26.7815 15.8745 26.3187 14.468 26.2441 13.0869C26.1903 12.0888 26.0464 10.8098 25.7119 9.46875L26.9326 8.24805ZM12.127 27C12.186 28.1581 12.6547 28.9943 13.3057 29.5576C14.0181 30.1736 14.9935 30.4999 15.9951 30.5C16.9968 30.4999 17.9721 30.1737 18.6846 29.5576C19.3356 28.9943 19.8043 28.1582 19.8633 27H12.127ZM16.001 0C20.2788 0.000196638 23.0545 1.71116 24.8164 4.00098L23.7432 5.07422C22.2536 3.05098 19.8787 1.5002 16.001 1.5C11.6554 1.50012 9.19332 3.44528 7.75391 5.82324C6.28321 8.25342 5.85878 11.1819 5.75586 13.0869C5.68121 14.468 5.21855 15.8746 4.23633 16.9551L3.82129 17.4121C2.21488 19.1794 2.18503 21.8696 3.75195 23.6719C3.96974 23.9223 4.20963 24.1489 4.46582 24.3516L3.39941 25.418C3.12196 25.1867 2.86056 24.9327 2.62012 24.6562C0.554108 22.28 0.592884 18.7324 2.71094 16.4023L3.12695 15.9453C3.82749 15.1745 4.19742 14.123 4.25781 13.0059C4.36579 11.0076 4.81144 7.78742 6.4707 5.0459C8.16203 2.25184 11.0934 0.00012029 16.001 0Z"
    fill="currentColor"
  />
</svg>

<svg xmlns="http://www.w3.org/2000/svg" width="32" height="32" fill="none" data-fui-icon="true" viewBox="0 0 32 32"><path fill="currentColor" d="M30.72.22a.75.75 0 1 1 1.06 1.06l-30.5 30.5a.75.75 0 1 1-1.06-1.06zm-3.787 8.028c.543 1.786.742 3.51.81 4.758.06 1.117.43 2.168 1.13 2.94l.416.457a6.21 6.21 0 0 1 .09 8.253A6.82 6.82 0 0 1 24.236 27h-2.87c-.063 1.591-.714 2.84-1.7 3.692-1.022.884-2.36 1.308-3.67 1.308s-2.648-.424-3.67-1.308c-.986-.852-1.637-2.101-1.699-3.692H8.182l1.5-1.5h14.553a5.32 5.32 0 0 0 4.013-1.828 4.71 4.71 0 0 0-.07-6.26l-.414-.457c-.982-1.08-1.445-2.487-1.52-3.868a19.5 19.5 0 0 0-.532-3.618zM12.127 27c.059 1.158.528 1.994 1.179 2.558.712.616 1.688.942 2.69.942 1 0 1.976-.326 2.689-.942.65-.564 1.12-1.4 1.178-2.558zm3.874-27c4.278 0 7.054 1.711 8.815 4.001l-1.073 1.073C22.253 3.051 19.88 1.5 16.001 1.5c-4.346 0-6.808 1.945-8.247 4.323-1.47 2.43-1.895 5.359-1.998 7.264-.075 1.381-.537 2.788-1.52 3.868l-.415.457a4.71 4.71 0 0 0-.07 6.26q.33.375.715.68l-1.067 1.066a7 7 0 0 1-.779-.762 6.21 6.21 0 0 1 .09-8.254l.417-.457c.7-.77 1.07-1.822 1.13-2.94.109-1.997.554-5.218 2.214-7.96C8.162 2.253 11.093 0 16 0"/></svg>
